X: 1
T: Donald Stewart The Piper
M: 4/4
L: 1/8
R: reel
K: Dmaj
D/D/D FA dAFA|dcBAGFED|E/E/E GB eBGB|edcB AGFE|
D/D/D FA dAFA|defa gfed|BcdB AdcB|1AGFE DABd:|2AGFE DABc||
|:d/d/d fd Adfa|^gaba =gfed|c/c/c AE CA,CE|Acea gage|
d/d/d fd Adfa|^gaba =gfed|1BcdB Aagf|edcB ABcA:|2BcdB AdcB|AGFE DABd|]
